gateways-e-adquirentes/payu.svg

<svg enable-background="new 0 0 120 80" height="80" viewBox="0 0 120 80" width="120" xmlns="http://www.w3.org/2000/svg" xmlns:xlink="http://www.w3.org/1999/xlink"><linearGradient id="a" gradientUnits="userSpaceOnUse" x1="76.6159" x2="76.6159" y1="19.3081" y2="60.6919"><stop offset=".298" stop-color="#bccf00"/><stop offset="1" stop-color="#65a11e"/></linearGradient><linearGradient id="b"><stop offset="0" stop-color="#bccf00"/><stop offset="1" stop-color="#65a11e"/></linearGradient><linearGradient id="c" gradientUnits="userSpaceOnUse" x1="43.4201" x2="43.4201" xlink:href="#b" y1="34.9837" y2="53.4728"/><linearGradient id="d" gradientUnits="userSpaceOnUse" x1="27.3426" x2="27.3426" xlink:href="#b" y1="29.5575" y2="53.4728"/><switch><foreignObject height="1" requiredExtensions="http://ns.adobe.com/AdobeIllustrator/10.0/" width="1"/><g><path d="m120 70c0 5.5-4.5 10-10 10h-100c-5.5 0-10-4.5-10-10v-60c0-5.5 4.5-10 10-10h100c5.5 0 10 4.5 10 10z" fill="#f5f5f5"/><path d="m110 0h-100c-5.5 0-10 4.5-10 10v60c0 5.5 4.5 10 10 10h100c5.5 0 10-4.5 10-10v-60c0-5.5-4.5-10-10-10zm0 2c4.412 0 8 3.588 8 8v60c0 4.412-3.588 8-8 8h-100c-4.412 0-8-3.588-8-8v-60c0-4.412 3.588-8 8-8z" fill="#fff"/><path d="m89.341 29.558h-1.207c-1.219 0-2.209.99-2.209 2.21v13.867s-.114 2.412-4.12 2.412-4.12-2.412-4.12-2.412v-13.867c0-1.22-.989-2.21-2.209-2.21h-2.415c-1.219 0-2.209.989-2.209 2.209v13.267c0 4.77 3.869 8.64 8.642 8.64h4.622c4.773 0 8.642-3.868 8.642-8.64v-10.05h2.613c.553 0 1.004-.45 1.004-1.004v-5.026c0-.553-.45-1.004-1.004-1.004h-5.026c-.553 0-1.004.45-1.004 1.004zm6.833-6.028c0-.445.359-.805.805-.805h3.615c.445 0 .805.359.805.805v3.615c0 .445-.359.805-.805.805h-3.615c-.445 0-.805-.359-.805-.805zm-3.416-3.62c0-.332.272-.601.601-.601h2.415c.332 0 .601.272.601.601v2.415c0 .332-.272.601-.601.601h-2.415c-.332 0-.601-.272-.601-.601zm-31.701 33.768c-.072.013-.456.072-.456.072-3.892.505-4.664-2.386-5.339-4.592l-3.389-12.608c-.173-.644.225-1.165.893-1.165h.803c.666 0 1.346.521 1.52 1.165 0 0 2.157 8.025 3.393 12.621.367.931.837 1.793 1.856 1.793s1.553-.21 2.02-1.948l2.942-12.457c.153-.648.817-1.174 1.484-1.174h.791c.667 0 1.079.526.921 1.172l-3.89 15.932c-1.791 7.031-4.092 8.053-7.811 8.202-1.135-.148-1.719-2.452-.793-2.824 0 0 1.874.013 2.958-.773 1.171-.849 1.669-2.207 1.94-2.981.014-.002.138-.391.157-.435z" fill="url(#a)"/><path d="m47.54 42.821h-6.128c-2.942 0-5.328 2.384-5.328 5.326s2.385 5.326 5.328 5.326h4.016c2.942 0 5.328-2.384 5.328-5.326v-4.522-3.215c0-5.426-5.834-5.426-7.436-5.426-2.073 0-4.628.313-4.628.313-.442.048-.798.448-.798.891v1.209c0 .443.357.765.797.718 0 0 2.802-.317 4.472-.317 1.597 0 4.377 0 4.377 2.612zm-8.24 5.226c0-1.554 1.26-2.814 2.813-2.814h5.427v2.814c0 1.554-1.26 2.814-2.813 2.814h-2.615c-1.553-.001-2.812-1.26-2.812-2.814z" fill="url(#c)"/><path d="m29.453 29.558h-7.435c-1.889 0-3.418 1.53-3.418 3.417v19.494c0 .554.451 1.005 1.007 1.005h1.403c.556 0 1.007-.45 1.007-1.006v-7.435h7.436c3.662 0 6.632-2.968 6.632-6.63v-2.215c0-3.661-2.969-6.63-6.632-6.63zm-1.108 12.259h-6.329v-8.059c0-.544.439-.985.987-.985h5.342c2.498 0 4.524 2.024 4.524 4.522 0 2.497-2.022 4.522-4.524 4.522z" fill="url(#d)"/><path d="m89.341 29.558h1.207c1.22 0 2.209.992 2.209 2.209v3.217h-2.412c-.555 0-1.004-.451-1.004-1.004z" fill="#8ba800"/></g></switch></svg>

<?xml version="1.0" encoding="UTF-8"?>
<svg width="120px" height="80px" viewBox="0 0 120 80" version="1.1" xmlns="http://www.w3.org/2000/svg" xmlns:xlink="http://www.w3.org/1999/xlink">
    <!-- Generator: Sketch 52.4 (67378) - http://www.bohemiancoding.com/sketch -->
    <title>payu</title>
    <desc>Created with Sketch.</desc>
    <defs>
        <linearGradient x1="50.0002279%" y1="-0.00217485863%" x2="50.0002279%" y2="100.002175%" id="linearGradient-1">
            <stop stop-color="#BCCF00" offset="29.8%"></stop>
            <stop stop-color="#65A11E" offset="100%"></stop>
        </linearGradient>
        <linearGradient x1="50.0006816%" y1="-0.0016225864%" x2="50.0006816%" y2="99.9989183%" id="linearGradient-2">
            <stop stop-color="#BCCF00" offset="0%"></stop>
            <stop stop-color="#65A11E" offset="100%"></stop>
        </linearGradient>
        <linearGradient x1="50.0005719%" y1="-0.00209065061%" x2="50.0005719%" y2="99.9949824%" id="linearGradient-3">
            <stop stop-color="#BCCF00" offset="0%"></stop>
            <stop stop-color="#65A11E" offset="100%"></stop>
        </linearGradient>
    </defs>
    <g id="Page-1" stroke="none" stroke-width="1" fill="none" fill-rule="evenodd">
        <g id="payu">
            <path d="M120,70 C120,75.5 115.5,80 110,80 L10,80 C4.5,80 0,75.5 0,70 L0,10 C0,4.5 4.5,0 10,0 L110,0 C115.5,0 120,4.5 120,10 L120,70 Z" id="Path" fill="#F5F5F5"></path>
            <path d="M110,0 L10,0 C4.5,0 0,4.5 0,10 L0,70 C0,75.5 4.5,80 10,80 L110,80 C115.5,80 120,75.5 120,70 L120,10 C120,4.5 115.5,0 110,0 Z M110,2 C114.412,2 118,5.588 118,10 L118,70 C118,74.412 114.412,78 110,78 L10,78 C5.588,78 2,74.412 2,70 L2,10 C2,5.588 5.588,2 10,2 L110,2 Z" id="Shape" fill="#D0D0D0" fill-rule="nonzero"></path>
            <path d="M89.341,29.558 L88.134,29.558 C86.915,29.558 85.925,30.548 85.925,31.768 L85.925,45.635 C85.925,45.635 85.811,48.047 81.805,48.047 C77.799,48.047 77.685,45.635 77.685,45.635 L77.685,31.768 C77.685,30.548 76.696,29.558 75.476,29.558 L73.061,29.558 C71.842,29.558 70.852,30.547 70.852,31.767 L70.852,45.034 C70.852,49.804 74.721,53.674 79.494,53.674 L84.116,53.674 C88.889,53.674 92.758,49.806 92.758,45.034 L92.758,34.984 L95.371,34.984 C95.924,34.984 96.375,34.534 96.375,33.98 L96.375,28.954 C96.375,28.401 95.925,27.95 95.371,27.95 L90.345,27.95 C89.792,27.95 89.341,28.4 89.341,28.954 L89.341,29.558 Z M96.174,23.53 C96.174,23.085 96.533,22.725 96.979,22.725 L100.594,22.725 C101.039,22.725 101.399,23.084 101.399,23.53 L101.399,27.145 C101.399,27.59 101.04,27.95 100.594,27.95 L96.979,27.95 C96.534,27.95 96.174,27.591 96.174,27.145 L96.174,23.53 Z M92.758,19.91 C92.758,19.578 93.03,19.309 93.359,19.309 L95.774,19.309 C96.106,19.309 96.375,19.581 96.375,19.91 L96.375,22.325 C96.375,22.657 96.103,22.926 95.774,22.926 L93.359,22.926 C93.027,22.926 92.758,22.654 92.758,22.325 L92.758,19.91 Z M61.057,53.678 C60.985,53.691 60.601,53.75 60.601,53.75 C56.709,54.255 55.937,51.364 55.262,49.158 L51.873,36.55 C51.7,35.906 52.098,35.385 52.766,35.385 L53.569,35.385 C54.235,35.385 54.915,35.906 55.089,36.55 C55.089,36.55 57.246,44.575 58.482,49.171 C58.849,50.102 59.319,50.964 60.338,50.964 C61.357,50.964 61.891,50.754 62.358,49.016 L65.3,36.559 C65.453,35.911 66.117,35.385 66.784,35.385 L67.575,35.385 C68.242,35.385 68.654,35.911 68.496,36.557 L64.606,52.489 C62.815,59.52 60.514,60.542 56.795,60.691 C55.66,60.543 55.076,58.239 56.002,57.867 C56.002,57.867 57.876,57.88 58.96,57.094 C60.131,56.245 60.629,54.887 60.9,54.113 C60.914,54.111 61.038,53.722 61.057,53.678 Z" id="Shape" fill="url(#linearGradient-1)" fill-rule="nonzero"></path>
            <path d="M47.54,42.821 L41.412,42.821 C38.47,42.821 36.084,45.205 36.084,48.147 C36.084,51.089 38.469,53.473 41.412,53.473 L45.428,53.473 C48.37,53.473 50.756,51.089 50.756,48.147 L50.756,43.625 L50.756,40.41 C50.756,34.984 44.922,34.984 43.32,34.984 C41.247,34.984 38.692,35.297 38.692,35.297 C38.25,35.345 37.894,35.745 37.894,36.188 L37.894,37.397 C37.894,37.84 38.251,38.162 38.691,38.115 C38.691,38.115 41.493,37.798 43.163,37.798 C44.76,37.798 47.54,37.798 47.54,40.41 L47.54,42.821 Z M39.3,48.047 C39.3,46.493 40.56,45.233 42.113,45.233 L47.54,45.233 L47.54,48.047 C47.54,49.601 46.28,50.861 44.727,50.861 L42.112,50.861 C40.559,50.86 39.3,49.601 39.3,48.047 Z" id="Shape" fill="url(#linearGradient-2)" fill-rule="nonzero"></path>
            <path d="M29.453,29.558 L22.018,29.558 C20.129,29.558 18.6,31.088 18.6,32.975 L18.6,52.469 C18.6,53.023 19.051,53.474 19.607,53.474 L21.01,53.474 C21.566,53.474 22.017,53.024 22.017,52.468 L22.017,45.033 L29.453,45.033 C33.115,45.033 36.085,42.065 36.085,38.403 L36.085,36.188 C36.085,32.527 33.116,29.558 29.453,29.558 Z M28.345,41.817 L22.016,41.817 L22.016,33.758 C22.016,33.214 22.455,32.773 23.003,32.773 L28.345,32.773 C30.843,32.773 32.869,34.797 32.869,37.295 C32.869,39.792 30.847,41.817 28.345,41.817 Z" id="Shape" fill="url(#linearGradient-3)" fill-rule="nonzero"></path>
            <path d="M89.341,29.558 L90.548,29.558 C91.768,29.558 92.757,30.55 92.757,31.767 L92.757,34.984 L90.345,34.984 C89.79,34.984 89.341,34.533 89.341,33.98 L89.341,29.558 Z" id="Path" fill="#8BA800"></path>
        </g>
    </g>
</svg>
